!!!!SEGMENT: T147_Jan-w35p2-3m1h1m1-6.krn
!!!COM: Janáček, Leoš [Leo Eugen]
!!!OTL: I: Smrt Andrijova (Death of Andrij)
!!!AGN: Orchestral
!!!AGN-sub: Programmatic
!!!CNT: Czech
!!!ODT: 1918
!!!OPR: Taras Bulba, Rhapsody for Large Orchestra
!!!filename: T147_Jan-w35p2-3m1h1m1-6.krn
**kern	**dynam	**kern	**dynam	**kern	**dynam	**kern	**dynam	**kern	**dynam	**kern	**dynam	**kern	**dynam	**kern	**dynam	**kern	**dynam	**kern	**dynam
*grp:A	*	*grp:A	*	*grp:B	*	*grp:A	*	*grp:B	*	*grp:A	*	*grp:A	*	*grp:A	*	*grp:A	*	*grp:A	*
*part10	*	*part9	*	*part8	*	*part7	*	*part6	*	*part5	*	*part4	*	*part3	*	*part2	*	*part1	*
*staff10	*	*staff9	*	*staff8	*	*staff7	*	*staff6	*	*staff5	*	*staff4	*	*staff3	*	*staff2	*	*staff1	*
*ICstr	*	*ICstr	*	*ICstr	*	*ICstr	*	*ICstr	*	*ICstr	*	*ICidio	*	*ICww	*	*ICww	*	*ICww	*
*Icbass	*	*Icello	*	*Iviola	*	*Ivioln	*	*Ivioln	*	*Ivioln	*	*Itbell	*	*Ifagot	*	*Iclars	*	*Iflt	*
*I"Contrabass	*	*I"Violoncello	*	*I"Viola	*	*I"Violin II	*	*I"Violin I	*	*I"Solo Violin	*	*I"Tubular Bells	*	*I"Bassoon 1, 2	*	*I"Clarinet in Bb 1, 2	*	*I"Flute 1, 2	*
*I'cb	*	*I'vc	*	*I'vla	*	*I'vn	*	*I'vn	*	*I'vn	*	*I'tub	*	*I'bn	*	*I'cl	*	*I'fl	*
*clefF4	*	*clefF4	*	*clefC3	*	*clefG2	*	*clefG2	*	*clefG2	*	*clefF4	*	*clefF4	*	*clefG2	*	*clefG2	*
*ITrd7c12	*	*	*	*	*	*	*	*	*	*	*	*	*	*	*	*ITrd1c2	*	*	*
*k[]	*	*k[]	*	*k[]	*	*k[]	*	*k[]	*	*k[]	*	*k[]	*	*k[]	*	*k[b-e-]	*	*k[]	*
*	*	*	*	*	*	*	*	*	*	*	*	*	*	*	*	*	*	*	*
*M9/16	*	*M9/16	*	*M9/16	*	*M9/16	*	*M9/16	*	*M9/16	*	*M9/16	*	*M9/16	*	*M9/16	*	*M9/16	*
=1	=1	=1	=1	=1	=1	=1	=1	=1	=1	=1	=1	=1	=1	=1	=1	=1	=1	=1	=1
!	!	!	!	!	!	!	!	!	!	!	!	!	!	!	!	!	!	!LO:TX:a:B:t=rit.	!
8.CC#X~L)	ff	8.C#X~L	ff	16f#XLL 16a#X	ff	8.f#XL	ff	16ff#XLL 16aa#X	ff	16%9r	.	16%9r	.	16%9r	.	16%9r	.	16%9r	.
.	.	.	.	16f# 16a#	.	.	.	16ff# 16aa#	.	.	.	.	.	.	.	.	.	.	.
.	.	.	.	16f#JJ 16a#	.	.	.	16ff#JJ 16aa#	.	.	.	.	.	.	.	.	.	.	.
[8.CC#~	.	[8.C#~	.	16f#LL 16a#	.	[8.f#~	.	16ff#LL 16aa#	.	.	.	.	.	.	.	.	.	.	.
.	.	.	.	16f# 16a#	.	.	.	16ff# 16aa#	.	.	.	.	.	.	.	.	.	.	.
.	.	.	.	16f#JJ 16a#	.	.	.	16ff#JJ 16aa#	.	.	.	.	.	.	.	.	.	.	.
8.CC#~J]	.	8.C#~J]	.	16f#LL 16a#	.	8.f#~J]	.	16ff#LL 16aa#	.	.	.	.	.	.	.	.	.	.	.
.	.	.	.	16f# 16a#	.	.	.	16ff# 16aa#	.	.	.	.	.	.	.	.	.	.	.
.	.	.	.	16f#JJ 16a#	.	.	.	16ff#JJ 16aa#	.	.	.	.	.	.	.	.	.	.	.
!!LO:REH:t=1
=2	=2	=2	=2	=2	=2	=2	=2	=2	=2	=2	=2	=2	=2	=2	=2	=2	=2	=2	=2
!	!	!	!	!	!	!	!	!	!	!LO:TUP:br:a	!	!	!	!	!	!	!	!LO:TX:t=[eighth-dot]=47	!
8.CC#X~L	p	8.C#X~L	p	16f#XLL 16a#X	p	8.f#XL	p	16ff#XLL 16aa#X	p	64%3r	.	16%9r	.	16%9r	.	16%9r	.	16%9r	.
!	!	!	!	!	!	!	!	!	!	!LO:TX:b:i:t=espr.	!	!	!	!	!	!	!	!	!
.	.	.	.	.	.	.	.	.	.	(64%3ddd-XLLL	f	.	.	.	.	.	.	.	.
.	.	.	.	16f# 16a#	.	.	.	16ff# 16aa#	.	.	.	.	.	.	.	.	.	.	.
.	.	.	.	.	.	.	.	.	.	64%3bb-X	.	.	.	.	.	.	.	.	.
.	.	.	.	16f#JJ 16a#	.	.	.	16ff#JJ 16aa#	.	.	.	.	.	.	.	.	.	.	.
.	.	.	.	.	.	.	.	.	.	64%3ccc-XJJJ	<	.	.	.	.	.	.	.	.
[8.CC#~	.	[8.C#~	.	16f#LL 16a#	.	[8.f#~	.	16ff#LL 16aa#	.	8.ddd-L	.	.	.	.	.	.	.	.	.
.	.	.	.	16f# 16a#	.	.	.	16ff# 16aa#	.	.	.	.	.	.	.	.	.	.	.
.	.	.	.	16f#JJ 16a#	.	.	.	16ff#JJ 16aa#	.	.	.	.	.	.	.	.	.	.	.
8.CC#~J]	.	8.C#~J]	.	16f#LL 16a#	.	8.f#~J]	.	16ff#LL 16aa#	.	[8.aaa-XJ	.	.	.	.	.	.	.	.	.
.	.	.	.	16f# 16a#	.	.	.	16ff# 16aa#	.	.	.	.	.	.	.	.	.	.	.
.	.	.	.	16f#JJ 16a#	.	.	.	16ff#JJ 16aa#	.	.	.	.	.	.	.	.	.	.	.
=3	=3	=3	=3	=3	=3	=3	=3	=3	=3	=3	=3	=3	=3	=3	=3	=3	=3	=3	=3
8.CC#X~L	.	8.C#X~L	.	16f#XLL 16a#X	.	8.f#XL	.	16ff#XLL 16aa#X	.	8.aaa-L]	.	16%9r	.	16%9r	.	16%9r	.	16%9r	.
.	.	.	.	16f# 16a#	.	.	.	16ff# 16aa#	.	.	.	.	.	.	.	.	.	.	.
.	.	.	.	16f#JJ 16a#	.	.	.	16ff#JJ 16aa#	.	.	.	.	.	.	.	.	.	.	.
[8.CC#~	.	[8.C#~	.	16f#LL 16a#	.	[8.f#~	.	16ff#LL 16aa#	.	(8.aaa-X	[ >	.	.	.	.	.	.	.	.
.	.	.	.	16f# 16a#	.	.	.	16ff# 16aa#	.	.	.	.	.	.	.	.	.	.	.
.	.	.	.	16f#JJ 16a#	.	.	.	16ff#JJ 16aa#	.	.	.	.	.	.	.	.	.	.	.
8.CC#~J_	.	8.C#~J]	.	16f#LL 16a#	.	8.f#~J]	.	16ff#LL 16aa#	.	8.ggg-XJ))	]]	.	.	.	.	.	.	.	.
.	.	.	.	16f# 16a#	.	.	.	16ff# 16aa#	.	.	.	.	.	.	.	.	.	.	.
.	.	.	.	[16f#JJ [16a#	.	.	.	[16ff#JJ [16aa#	.	.	.	.	.	.	.	.	.	.	.
!!pagebreak:original
=4	=4	=4	=4	=4	=4	=4	=4	=4	=4	=4	=4	=4	=4	=4	=4	=4	=4	=4	=4
!	!	!	!	!	!	!	!	!	!	!	!	!	!	!LO:TX:a:t=a2	!	!LO:TX:a:t=a2	!	!LO:TX:a:t=a2	!
8.CC#~L]	<	16r	.	16f#KL] 16a#]	<	(16ff#XLL	<	16ff#KL] 16aa#]	<	(8.ggg-X~L	<	16%9r	.	([8.G-XL	mf <	([8.g-XL	mf <	([8.gg-XL	mf <
.	.	(16c#XLL	<	8f#X 8a#X	.	16a#X	.	8ff#X 8aa#X	.	.	.	.	.	.	.	.	.	.	.
.	.	[16A#XJJ	.	.	.	16ff#	.	.	.	.	.	.	.	.	.	.	.	.	.
[8.FFF#X~	.	16A#LL]	.	8f# 8a#	.	16a#	.	8ff# 8aa#	.	8.ggg-~	.	.	.	8.G-]	.	8.g-]	.	8.gg-]	.
.	.	16G#X	.	.	.	16ff#	.	.	.	.	.	.	.	.	.	.	.	.	.
.	.	[16F#XJJ	.	8f# 8a#	.	16a#	.	8ff# 8aa#	.	.	.	.	.	.	.	.	.	.	.
8.FFF#~J]	[	16F#LL]	.	.	.	16ff#	.	.	.	8.ggg-~J)	[	.	.	8.A-XJ	.	8.a-XJ	.	8.aa-XJ	.
.	.	16C#X	.	8f#J 8a#	[	16a#	.	8ff#J 8aa#	[	.	.	.	.	.	.	.	.	.	.
.	.	[16FF#XJJ	[	.	.	16ff#JJ)	[	.	.	.	.	.	.	.	.	.	.	.	.
=5	=5	=5	=5	=5	=5	=5	=5	=5	=5	=5	=5	=5	=5	=5	=5	=5	=5	=5	=5
[8.FFF#X~L	.	16FF#LL])	.	8.f#X~L 8.an	.	(16anLL	.	8.ff#X~L 8.aan	.	(8.ggg-XL	.	16r	.	8.AnL	.	8.anL	.	8.aanL	.
.	.	(16BB#X	.	.	.	16ff#X	.	.	.	.	.	\8CL	f	.	.	.	.	.	.
.	.	[16DnJJ	.	.	.	16an	.	.	.	.	.	.	.	.	.	.	.	.	.
8.FFF#~_	.	16DLL]	.	[8.f#~ [8.a#X	.	16ff#	.	[8.ff#~ [8.aa#X	.	[8.aaa-X	.	8Dn	.	[8.B-X	.	[8.b-	.	[8.bb-X	.
.	.	16C#X	.	.	.	16a#X	.	.	.	.	.	.	.	.	.	.	.	.	.
.	.	[16FF#XJJ)	.	.	.	16ff#	.	.	.	.	.	[16D-Xk	.	.	.	.	.	.	.
8.FFF#~J]	.	16FF#LL]	.	8.f#J] 8.a#]	.	16a#	.	8.ff#J] 8.aa#]	.	8.aaa-J])	.	8.D-J]	.	8.B-J])	[	8.b-J])	[	8.bb-J])	[
.	.	(16BB#	.	.	.	16ff#	.	.	.	.	.	.	.	.	.	.	.	.	.
.	.	[16C#JJ	.	.	.	16a#JJ)	.	.	.	.	.	.	.	.	.	.	.	.	.
=6	=6	=6	=6	=6	=6	=6	=6	=6	=6	=6	=6	=6	=6	=6	=6	=6	=6	=6	=6
!	!	!	!	!	!	!	!	!	!	!	!	!	!	!	!	!	!	!LO:TX:a:t=accel.	!
[8.FFF#X~L	mf <	16C#LL])	mf <	8.f#X~ 8.anL	mf <	(16anLL	mf <	8.ff#X~L 8.aan	mf <	(8.ggg-XL	mf <	16r	.	(8.AL	mf <	(8.aL	mf <	(8.aaL	mf <
.	.	(16BB#X	.	.	.	16ff#X	.	.	.	.	.	\8CL	.	.	.	.	.	.	.
.	.	[16DnJJ	.	.	.	16a	.	.	.	.	.	.	.	.	.	.	.	.	.
8.FFF#~_	.	16DLL]	.	[8.f#~ [8.a#X	.	16ff#	.	[8.ff#~ [8.aa#X	.	[8.aaa-X	.	8Dn	.	[8.B-X	.	[8.b-	.	[8.bb-X	.
.	.	16C#X	.	.	.	16a#X	.	.	.	.	.	.	.	.	.	.	.	.	.
.	.	[16FF#XJJ	.	.	.	16ff#	.	.	.	.	.	[16D-Xk	.	.	.	.	.	.	.
8.FFF#~J]	.	16FF#LL]	.	8.f#] 8.a#J]	.	16a#	.	8.ff#J] 8.aa#]	.	8.aaa-J])	.	8.D-J]	.	8.B-J])	.	8.b-J])	.	8.bb-J])	.
.	.	16BB#	.	.	.	16ff#	.	.	.	.	.	.	.	.	.	.	.	.	.
.	.	[16C#JJ	.	.	.	16a#JJ)	.	.	.	.	.	.	.	.	.	.	.	.	.
=7	=7	=7	=7	=7	=7	=7	=7	=7	=7	=7	=7	=7	=7	=7	=7	=7	=7	=7	=7
[8.FFF#X~L	.	16C#LL])	.	8.f#X~ 8.anL	.	(16anLL	.	8.ff#X~L 8.aan	.	(8.ggg-XL	.	16r	.	(8.AL	.	(8.aL	.	(8.aaL	.
.	.	(16BB#X	.	.	.	16ff#X	.	.	.	.	.	\8CL	.	.	.	.	.	.	.
.	.	[16DnJJ	.	.	.	16a	.	.	.	.	.	.	.	.	.	.	.	.	.
8.FFF#~_	.	16DLL]	.	[8.f#~ [8.a#X	.	16ff#	.	[8.ff#~ [8.aa#X	.	[8.aaa-X	.	8Dn	.	[8.B-X	.	[8.b-	.	[8.bb-X	.
.	.	16C#X	.	.	.	16a#X	.	.	.	.	.	.	.	.	.	.	.	.	.
.	.	[16FF#XJJ	.	.	.	16ff#	.	.	.	.	.	[16D-Xk	.	.	.	.	.	.	.
8.FFF#~J]	[	16FF#LL]	.	8.f#] 8.a#J]	[	16a#	.	8.ff#J] 8.aa#]	[	8.aaa-J])	[	8.D-J]	.	8.B-J])	[	8.b-J])	[	8.bb-J])	[
.	.	16BB#	.	.	.	16ff#	.	.	.	.	.	.	.	.	.	.	.	.	.
.	.	[16C#JJ	[	.	.	16a#JJ)	[	.	.	.	.	.	.	.	.	.	.	.	.
=	=	=	=	=	=	=	=	=	=	=	=	=	=	=	=	=	=	=	=
*-	*-	*-	*-	*-	*-	*-	*-	*-	*-	*-	*-	*-	*-	*-	*-	*-	*-	*-	*-
!!!system-decoration: [(s1,s2,s3)]s4[(s5[(s6,s7)]s8,s9,s10)]
!!!EED2: Rafael Laurindo
!!!Suter_Work_ID: Jan-35
!!!Suter_Example_Number: 147
!!!Suter_Example_ID: Jan-35/2-3/1[1]1-6
!!!Premiere_Location: Brno,Czech Republic
!!!Other_Tsigs: none
!!!Full_Unit_Duration: 9:10
!!!First_Publication_Year: 1927
!!!First_Public_Performance_Year: 1921
!!!Example_Total_Measures: 7
!!!Example_Timestamp_Duration: 21
!!!Example_Start_Tsig_Type: compound triple
!!!Example_Start_Tsig_Mean_Beat_Rate: 60
!!!Example_Start_Tsig_Beat_Rate: 60
!!!Example_Start_Tsig_Beat: dotted-eighth
!!!Example_Start_Tsig: 9/16
!!!Example_Start_Timestamp: 0:46
!!!Example_Start_Tempo_Expression: [Moderato, quasi recitativo, ritenuto]
!!!Example_Start_Notated_Beat_Rate: [60]
!!!Example_Start_Notated_Beat: [dotted-eighth]
!!!Example_Start_Measure: 12
!!!Example_Metadata_Validated: Y
!!!Example_End_Timestamp: 1:07
!!!Example_End_Measure: 18
!!!Example_Dataset: T
!!!Editorial_Comments: Example Start Notated Beat and Example Start Notated Beat Rate [dotted-eighth=60] based on most recent notated beat rate (SWFU, m. 1). Note that this Beat Rate was taken from the E3 scan; the E2 scan had eighth=60 notated, despite the compound time signature, and the E1 is no longer accessible. Example Start Tempo Expression [Moderato, quasi recitativo] based on most recent notated tempo expression (SWFU, m. 1).
!!!Death_Place: Moravaská Ostrava,Czech Republic
!!!Death_Date: 12-Aug-1928
!!!Changing_Tsig: no
!!!Birth_Place: Hukvaldy,Moravia
!!!Birth_Date: 3-Jul-1854
!!!Audio_Example_Quarter_Note_Tempo:
!!!Audio_Example_Duration:
!!!EEV2: 2022/03/25
